20090521_0011.xmp
<x:xmpmeta xmlns:x="adobe:ns:meta/" x:xmptk="Adobe XMP Core 4.2-c020 1.124078, Tue Sep 11 2007 23:21:40        ">
 <rdf:RDF xmlns:rdf="http://www.w3.org/1999/02/22-rdf-syntax-ns#">
  <rdf:Description rdf:about=""
    xmlns:tiff="http://ns.adobe.com/tiff/1.0/">
   <tiff:Make>NIKON CORPORATION</tiff:Make>
   <tiff:Model>NIKON D90</tiff:Model>
   <tiff:Orientation>1</tiff:Orientation>
   <tiff:ImageWidth>4288</tiff:ImageWidth>
   <tiff:ImageLength>2848</tiff:ImageLength>
  </rdf:Description>
  <rdf:Description rdf:about=""
    xmlns:exif="http://ns.adobe.com/exif/1.0/">
   <exif:ExifVersion>0221</exif:ExifVersion>
   <exif:ExposureTime>1/800</exif:ExposureTime>
   <exif:ShutterSpeedValue>9643856/1000000</exif:ShutterSpeedValue>
   <exif:FNumber>22/1</exif:FNumber>
   <exif:ApertureValue>8918863/1000000</exif:ApertureValue>
   <exif:ExposureProgram>1</exif:ExposureProgram>
   <exif:DateTimeOriginal>2009-05-21T18:34:53.00+03:00</exif:DateTimeOriginal>
   <exif:DateTimeDigitized>2009-05-21T18:34:53.00+03:00</exif:DateTimeDigitized>
   <exif:ExposureBiasValue>0/6</exif:ExposureBiasValue>
   <exif:MaxApertureValue>43/10</exif:MaxApertureValue>
   <exif:MeteringMode>3</exif:MeteringMode>
   <exif:LightSource>0</exif:LightSource>
   <exif:FocalLength>120/10</exif:FocalLength>
   <exif:SensingMethod>2</exif:SensingMethod>
   <exif:FileSource>3</exif:FileSource>
   <exif:SceneType>1</exif:SceneType>
   <exif:FocalLengthIn35mmFilm>18</exif:FocalLengthIn35mmFilm>
   <exif:CustomRendered>0</exif:CustomRendered>
   <exif:ExposureMode>1</exif:ExposureMode>
   <exif:WhiteBalance>0</exif:WhiteBalance>
   <exif:SceneCaptureType>0</exif:SceneCaptureType>
   <exif:GainControl>0</exif:GainControl>
   <exif:Contrast>0</exif:Contrast>
   <exif:Saturation>0</exif:Saturation>
   <exif:Sharpness>0</exif:Sharpness>
   <exif:SubjectDistanceRange>0</exif:SubjectDistanceRange>
   <exif:DigitalZoomRatio>1/1</exif:DigitalZoomRatio>
   <exif:SubjectDistance>4294967295/1</exif:SubjectDistance>
   <exif:PixelXDimension>4288</exif:PixelXDimension>
   <exif:PixelYDimension>2848</exif:PixelYDimension>
   <exif:ISOSpeedRatings>
    <rdf:Seq>
     <rdf:li>200</rdf:li>
    </rdf:Seq>
   </exif:ISOSpeedRatings>
   <exif:Flash rdf:parseType="Resource">
    <exif:Fired>True</exif:Fired>
    <exif:Return>3</exif:Return>
    <exif:Mode>1</exif:Mode>
    <exif:Function>False</exif:Function>
    <exif:RedEyeMode>False</exif:RedEyeMode>
   </exif:Flash>
  </rdf:Description>
  <rdf:Description rdf:about=""
    xmlns:xap="http://ns.adobe.com/xap/1.0/">
   <xap:ModifyDate>2009-05-21T18:34:53.00+03:00</xap:ModifyDate>
   <xap:CreateDate>2009-05-21T18:34:53.00+03:00</xap:CreateDate>
   <xap:CreatorTool>Ver.1.00</xap:CreatorTool>
   <xap:MetadataDate>2011-01-23T18:40:50.118-02:00</xap:MetadataDate>
  </rdf:Description>
  <rdf:Description rdf:about=""
    xmlns:aux="http://ns.adobe.com/exif/1.0/aux/">
   <aux:SerialNumber>6044969</aux:SerialNumber>
   <aux:LensInfo>120/10 240/10 45/10 56/10</aux:LensInfo>
   <aux:Lens>12.0-24.0 mm f/4.5-5.6</aux:Lens>
   <aux:ImageNumber>1255</aux:ImageNumber>
   <aux:LensID>72</aux:LensID>
  </rdf:Description>
  <rdf:Description rdf:about=""
    xmlns:Iptc4xmpCore="http://iptc.org/std/Iptc4xmpCore/1.0/xmlns/">
   <Iptc4xmpCore:CreatorContactInfo rdf:parseType="Resource">
    <Iptc4xmpCore:CiEmailWork>adodson1510@hotmail.com</Iptc4xmpCore:CiEmailWork>
    <Iptc4xmpCore:CiAdrCtry>Finland</Iptc4xmpCore:CiAdrCtry>
    <Iptc4xmpCore:CiAdrCity>Turku</Iptc4xmpCore:CiAdrCity>
   </Iptc4xmpCore:CreatorContactInfo>
  </rdf:Description>
  <rdf:Description rdf:about=""
    xmlns:crss="http://ns.adobe.com/camera-raw-saved-settings/1.0/"
    xmlns:crs="http://ns.adobe.com/camera-raw-settings/1.0/">
   <crss:SavedSettings>
    <rdf:Bag>
     <rdf:li rdf:parseType="Resource">
      <crss:Name>Import</crss:Name>
      <crss:Type>Snapshot</crss:Type>
      <crss:Parameters rdf:parseType="Resource">
       <crs:Version>6.3</crs:Version>
       <crs:ProcessVersion>5.0</crs:ProcessVersion>
       <crs:WhiteBalance>As Shot</crs:WhiteBalance>
       <crs:Temperature>5800</crs:Temperature>
       <crs:Tint>0</crs:Tint>
       <crs:Exposure>0.00</crs:Exposure>
       <crs:Shadows>0</crs:Shadows>
       <crs:Brightness>+99</crs:Brightness>
       <crs:Contrast>+24</crs:Contrast>
       <crs:Saturation>0</crs:Saturation>
       <crs:Sharpness>25</crs:Sharpness>
       <crs:LuminanceSmoothing>0</crs:LuminanceSmoothing>
       <crs:ColorNoiseReduction>25</crs:ColorNoiseReduction>
       <crs:ChromaticAberrationR>0</crs:ChromaticAberrationR>
       <crs:ChromaticAberrationB>0</crs:ChromaticAberrationB>
       <crs:VignetteAmount>0</crs:VignetteAmount>
       <crs:ShadowTint>0</crs:ShadowTint>
       <crs:RedHue>0</crs:RedHue>
       <crs:RedSaturation>0</crs:RedSaturation>
       <crs:GreenHue>0</crs:GreenHue>
       <crs:GreenSaturation>0</crs:GreenSaturation>
       <crs:BlueHue>0</crs:BlueHue>
       <crs:BlueSaturation>0</crs:BlueSaturation>
       <crs:FillLight>0</crs:FillLight>
       <crs:Vibrance>0</crs:Vibrance>
       <crs:HighlightRecovery>0</crs:HighlightRecovery>
       <crs:Clarity>0</crs:Clarity>
       <crs:Defringe>0</crs:Defringe>
       <crs:HueAdjustmentRed>0</crs:HueAdjustmentRed>
       <crs:HueAdjustmentOrange>0</crs:HueAdjustmentOrange>
       <crs:HueAdjustmentYellow>0</crs:HueAdjustmentYellow>
       <crs:HueAdjustmentGreen>0</crs:HueAdjustmentGreen>
       <crs:HueAdjustmentAqua>0</crs:HueAdjustmentAqua>
       <crs:HueAdjustmentBlue>0</crs:HueAdjustmentBlue>
       <crs:HueAdjustmentPurple>0</crs:HueAdjustmentPurple>
       <crs:HueAdjustmentMagenta>0</crs:HueAdjustmentMagenta>
       <crs:SaturationAdjustmentRed>0</crs:SaturationAdjustmentRed>
       <crs:SaturationAdjustmentOrange>0</crs:SaturationAdjustmentOrange>
       <crs:SaturationAdjustmentYellow>0</crs:SaturationAdjustmentYellow>
       <crs:SaturationAdjustmentGreen>0</crs:SaturationAdjustmentGreen>
       <crs:SaturationAdjustmentAqua>0</crs:SaturationAdjustmentAqua>
       <crs:SaturationAdjustmentBlue>0</crs:SaturationAdjustmentBlue>
       <crs:SaturationAdjustmentPurple>0</crs:SaturationAdjustmentPurple>
       <crs:SaturationAdjustmentMagenta>0</crs:SaturationAdjustmentMagenta>
       <crs:LuminanceAdjustmentRed>0</crs:LuminanceAdjustmentRed>
       <crs:LuminanceAdjustmentOrange>0</crs:LuminanceAdjustmentOrange>
       <crs:LuminanceAdjustmentYellow>0</crs:LuminanceAdjustmentYellow>
       <crs:LuminanceAdjustmentGreen>0</crs:LuminanceAdjustmentGreen>
       <crs:LuminanceAdjustmentAqua>0</crs:LuminanceAdjustmentAqua>
       <crs:LuminanceAdjustmentBlue>0</crs:LuminanceAdjustmentBlue>
       <crs:LuminanceAdjustmentPurple>0</crs:LuminanceAdjustmentPurple>
       <crs:LuminanceAdjustmentMagenta>0</crs:LuminanceAdjustmentMagenta>
       <crs:SplitToningShadowHue>0</crs:SplitToningShadowHue>
       <crs:SplitToningShadowSaturation>0</crs:SplitToningShadowSaturation>
       <crs:SplitToningHighlightHue>0</crs:SplitToningHighlightHue>
       <crs:SplitToningHighlightSaturation>0</crs:SplitToningHighlightSaturation>
       <crs:SplitToningBalance>0</crs:SplitToningBalance>
       <crs:ParametricShadows>0</crs:ParametricShadows>
       <crs:ParametricDarks>0</crs:ParametricDarks>
       <crs:ParametricLights>0</crs:ParametricLights>
       <crs:ParametricHighlights>0</crs:ParametricHighlights>
       <crs:ParametricShadowSplit>25</crs:ParametricShadowSplit>
       <crs:ParametricMidtoneSplit>50</crs:ParametricMidtoneSplit>
       <crs:ParametricHighlightSplit>75</crs:ParametricHighlightSplit>
       <crs:SharpenRadius>+1.0</crs:SharpenRadius>
       <crs:SharpenDetail>25</crs:SharpenDetail>
       <crs:SharpenEdgeMasking>0</crs:SharpenEdgeMasking>
       <crs:PostCropVignetteAmount>0</crs:PostCropVignetteAmount>
       <crs:GrainAmount>0</crs:GrainAmount>
       <crs:LensProfileEnable>0</crs:LensProfileEnable>
       <crs:LensManualDistortionAmount>0</crs:LensManualDistortionAmount>
       <crs:PerspectiveVertical>0</crs:PerspectiveVertical>
       <crs:PerspectiveHorizontal>0</crs:PerspectiveHorizontal>
       <crs:PerspectiveRotate>0.0</crs:PerspectiveRotate>
       <crs:PerspectiveScale>100</crs:PerspectiveScale>
       <crs:ConvertToGrayscale>False</crs:ConvertToGrayscale>
       <crs:ToneCurveName>Medium Contrast</crs:ToneCurveName>
       <crs:ToneCurve>
        <rdf:Seq>
         <rdf:li>0, 0</rdf:li>
         <rdf:li>32, 22</rdf:li>
         <rdf:li>64, 56</rdf:li>
         <rdf:li>128, 128</rdf:li>
         <rdf:li>192, 196</rdf:li>
         <rdf:li>255, 255</rdf:li>
        </rdf:Seq>
       </crs:ToneCurve>
       <crs:CameraProfile>Adobe Standard</crs:CameraProfile>
       <crs:CameraProfileDigest>B7B8C440442EB398B6EDDACCED96AAB3</crs:CameraProfileDigest>
       <crs:LensProfileSetup>LensDefaults</crs:LensProfileSetup>
      </crss:Parameters>
     </rdf:li>
    </rdf:Bag>
   </crss:SavedSettings>
  </rdf:Description>
  <rdf:Description rdf:about=""
    xmlns:dc="http://purl.org/dc/elements/1.1/">
   <dc:creator>
    <rdf:Bag>
     <rdf:li>Andy Dodson</rdf:li>
    </rdf:Bag>
   </dc:creator>
  </rdf:Description>
  <rdf:Description rdf:about=""
    xmlns:crs="http://ns.adobe.com/camera-raw-settings/1.0/">
   <crs:Version>6.3</crs:Version>
   <crs:ProcessVersion>5.0</crs:ProcessVersion>
   <crs:WhiteBalance>As Shot</crs:WhiteBalance>
   <crs:Temperature>5800</crs:Temperature>
   <crs:Tint>0</crs:Tint>
   <crs:Exposure>0.00</crs:Exposure>
   <crs:Shadows>0</crs:Shadows>
   <crs:Brightness>+99</crs:Brightness>
   <crs:Contrast>+24</crs:Contrast>
   <crs:Saturation>0</crs:Saturation>
   <crs:Sharpness>25</crs:Sharpness>
   <crs:LuminanceSmoothing>0</crs:LuminanceSmoothing>
   <crs:ColorNoiseReduction>25</crs:ColorNoiseReduction>
   <crs:ChromaticAberrationR>0</crs:ChromaticAberrationR>
   <crs:ChromaticAberrationB>0</crs:ChromaticAberrationB>
   <crs:VignetteAmount>0</crs:VignetteAmount>
   <crs:ShadowTint>0</crs:ShadowTint>
   <crs:RedHue>0</crs:RedHue>
   <crs:RedSaturation>0</crs:RedSaturation>
   <crs:GreenHue>0</crs:GreenHue>
   <crs:GreenSaturation>0</crs:GreenSaturation>
   <crs:BlueHue>0</crs:BlueHue>
   <crs:BlueSaturation>0</crs:BlueSaturation>
   <crs:FillLight>0</crs:FillLight>
   <crs:Vibrance>0</crs:Vibrance>
   <crs:HighlightRecovery>0</crs:HighlightRecovery>
   <crs:Clarity>0</crs:Clarity>
   <crs:Defringe>0</crs:Defringe>
   <crs:HueAdjustmentRed>0</crs:HueAdjustmentRed>
   <crs:HueAdjustmentOrange>0</crs:HueAdjustmentOrange>
   <crs:HueAdjustmentYellow>0</crs:HueAdjustmentYellow>
   <crs:HueAdjustmentGreen>0</crs:HueAdjustmentGreen>
   <crs:HueAdjustmentAqua>0</crs:HueAdjustmentAqua>
   <crs:HueAdjustmentBlue>0</crs:HueAdjustmentBlue>
   <crs:HueAdjustmentPurple>0</crs:HueAdjustmentPurple>
   <crs:HueAdjustmentMagenta>0</crs:HueAdjustmentMagenta>
   <crs:SaturationAdjustmentRed>0</crs:SaturationAdjustmentRed>
   <crs:SaturationAdjustmentOrange>0</crs:SaturationAdjustmentOrange>
   <crs:SaturationAdjustmentYellow>0</crs:SaturationAdjustmentYellow>
   <crs:SaturationAdjustmentGreen>0</crs:SaturationAdjustmentGreen>
   <crs:SaturationAdjustmentAqua>0</crs:SaturationAdjustmentAqua>
   <crs:SaturationAdjustmentBlue>0</crs:SaturationAdjustmentBlue>
   <crs:SaturationAdjustmentPurple>0</crs:SaturationAdjustmentPurple>
   <crs:SaturationAdjustmentMagenta>0</crs:SaturationAdjustmentMagenta>
   <crs:LuminanceAdjustmentRed>0</crs:LuminanceAdjustmentRed>
   <crs:LuminanceAdjustmentOrange>0</crs:LuminanceAdjustmentOrange>
   <crs:LuminanceAdjustmentYellow>0</crs:LuminanceAdjustmentYellow>
   <crs:LuminanceAdjustmentGreen>0</crs:LuminanceAdjustmentGreen>
   <crs:LuminanceAdjustmentAqua>0</crs:LuminanceAdjustmentAqua>
   <crs:LuminanceAdjustmentBlue>0</crs:LuminanceAdjustmentBlue>
   <crs:LuminanceAdjustmentPurple>0</crs:LuminanceAdjustmentPurple>
   <crs:LuminanceAdjustmentMagenta>0</crs:LuminanceAdjustmentMagenta>
   <crs:SplitToningShadowHue>0</crs:SplitToningShadowHue>
   <crs:SplitToningShadowSaturation>0</crs:SplitToningShadowSaturation>
   <crs:SplitToningHighlightHue>0</crs:SplitToningHighlightHue>
   <crs:SplitToningHighlightSaturation>0</crs:SplitToningHighlightSaturation>
   <crs:SplitToningBalance>0</crs:SplitToningBalance>
   <crs:ParametricShadows>0</crs:ParametricShadows>
   <crs:ParametricDarks>0</crs:ParametricDarks>
   <crs:ParametricLights>0</crs:ParametricLights>
   <crs:ParametricHighlights>0</crs:ParametricHighlights>
   <crs:ParametricShadowSplit>25</crs:ParametricShadowSplit>
   <crs:ParametricMidtoneSplit>50</crs:ParametricMidtoneSplit>
   <crs:ParametricHighlightSplit>75</crs:ParametricHighlightSplit>
   <crs:SharpenRadius>+1.0</crs:SharpenRadius>
   <crs:SharpenDetail>25</crs:SharpenDetail>
   <crs:SharpenEdgeMasking>0</crs:SharpenEdgeMasking>
   <crs:PostCropVignetteAmount>0</crs:PostCropVignetteAmount>
   <crs:GrainAmount>0</crs:GrainAmount>
   <crs:LensProfileEnable>0</crs:LensProfileEnable>
   <crs:LensManualDistortionAmount>0</crs:LensManualDistortionAmount>
   <crs:PerspectiveVertical>0</crs:PerspectiveVertical>
   <crs:PerspectiveHorizontal>0</crs:PerspectiveHorizontal>
   <crs:PerspectiveRotate>0.0</crs:PerspectiveRotate>
   <crs:PerspectiveScale>100</crs:PerspectiveScale>
   <crs:ConvertToGrayscale>False</crs:ConvertToGrayscale>
   <crs:ToneCurveName>Medium Contrast</crs:ToneCurveName>
   <crs:ToneCurve>
    <rdf:Seq>
     <rdf:li>0, 0</rdf:li>
     <rdf:li>32, 22</rdf:li>
     <rdf:li>64, 56</rdf:li>
     <rdf:li>128, 128</rdf:li>
     <rdf:li>192, 196</rdf:li>
     <rdf:li>255, 255</rdf:li>
    </rdf:Seq>
   </crs:ToneCurve>
   <crs:CameraProfile>Adobe Standard</crs:CameraProfile>
   <crs:CameraProfileDigest>B7B8C440442EB398B6EDDACCED96AAB3</crs:CameraProfileDigest>
   <crs:LensProfileSetup>LensDefaults</crs:LensProfileSetup>
   <crs:HasSettings>True</crs:HasSettings>
   <crs:AlreadyApplied>False</crs:AlreadyApplied>
   <crs:RawFileName>20090521_0011.NEF</crs:RawFileName>
  </rdf:Description>
 </rdf:RDF>
</x:xmpmeta>
